X:39
T:Flogging
S:Trad, arr. Paddy O'Brien 
R:reel
E:9
I:speed 350
E:9
M:C|
K:G
BG~G2 BGdG|BG~G2 Bdgd|BG~G2 BdcB|AGFG ABcA|\
BG~G2 BGdG|BG~G2 Bdgd|BG~G2 BdcB|AGFG ABcA||\
gfgd BGBd|~g2eg fgaf|gfgd BdcB|AGFG ABcA|\
gfgd BGBd|~g2 eg fgag|bgaf gedB|AGFG ABcA||\
Bdgd Bdgd|Bdgd BG G2|Ac=fc Acfc|Ac=fc AF~F2|\
Bdgd Bdgd|^cdef gfga|bgaf gedB|AGFG ABcA||**
\vfill\eject
